logo/forestadmin-icon.svg

<?xml version="1.0" encoding="UTF-8"?>
<svg width="256px" height="256px" viewBox="0 0 256 256" version="1.1" xmlns="http://www.w3.org/2000/svg" preserveAspectRatio="xMidYMid">
    <title>Forest Admin</title>
    <g>
        <path d="M21.3333333,0 L234.666667,0 C246.448741,0 256,9.55125867 256,21.3333333 L256,234.666667 C256,246.448741 246.448741,256 234.666667,256 L21.3333333,256 C9.55125867,256 0,246.448741 0,234.666667 L0,21.3333333 C0,9.55125867 9.55125867,0 21.3333333,0 Z" fill="#54BD7E"></path>
        <path d="M135.6928,84.6165333 C166.5616,82.2906667 185.2208,67.5909333 191.034667,48 C150.2976,66.7701333 99.4656,43.80752 89.8448,85.2816 L84.9130667,107.391467 C93.4928,94.08 104.8256,86.9424 135.6928,84.6165333 Z M119.642133,88.3813333 C104.470933,90.5669333 92.3013333,97.6048 85.4714667,109.9664 C83.2730667,113.944 82.5008,118.218667 82.5008,118.218667 L79.0096,133.868267 C83.3829333,126.069333 91.2037333,116.102933 111.700267,111.360533 C112.1616,108.878933 114.960533,94.6538667 119.642133,88.3813333 Z M75.824,148.147733 L70.4922667,172.052267 C84.6192,145.1536 115.021333,139.9328 118.775467,139.148267 C145.2496,133.611733 157.995733,120.466667 163.064533,103.384533 C139.964267,116.447467 86.0448,100.0448 75.824,148.147733 Z M67.9242667,183.5696 L64,201.162667 C95.3088,199.4 98.7616,169.312 103.8704,145.410133 C94.1296,148.810133 72.6629333,162.133867 67.9242667,183.5696 Z" fill="#FFFFFF"></path>
    </g>
</svg>

<svg viewBox="0 0 256 256" xmlns="http://www.w3.org/2000/svg"><path fill="#54BD7E" d="M21.33 0h213.33c11.78 0 21.33 9.55 21.33 21.33v213.33c0 11.78-9.56 21.33-21.34 21.33H21.31c-11.79 0-21.34-9.56-21.34-21.34V21.31C-.03 9.52 9.52-.03 21.3-.03Z"/><path fill="#FFF" d="M135.69 84.61c30.86-2.33 49.52-17.03 55.34-36.62 -40.74 18.77-91.57-4.2-101.19 37.28l-4.94 22.1c8.57-13.32 19.91-20.45 50.77-22.78Zm-16.06 3.76c-15.18 2.18-27.35 9.22-34.18 21.58 -2.2 3.97-2.98 8.25-2.98 8.25l-3.5 15.64c4.37-7.8 12.19-17.77 32.69-22.51 .46-2.49 3.26-16.71 7.94-22.98Zm-43.82 59.76l-5.34 23.9c14.12-26.9 44.52-32.12 48.28-32.91 26.47-5.54 39.22-18.69 44.28-35.77 -23.11 13.06-77.02-3.34-87.25 44.76Zm-7.9 35.42l-3.93 17.59c31.3-1.77 34.76-31.86 39.87-55.76 -9.75 3.4-31.21 16.72-35.95 38.15Z"/></svg>
